X:1
T:Title
%%score { 1 | 2 }
L:1/8
M:3/4
K:F
V:1 treble nm="Grand Piano"
V:2 bass 
V:1
 z2 z2[Q:1/4=100] FA | A2 F2 BA | A4 E[EG] | [EG]2 E2 GF |[M:2/4] F4 |[M:1/4] FA | %6
[M:3/4] A2 c2 cA | [DFB]4 [CF][DFG] | [CFA][CGB] [CFA]2 [B,EG]2 |[M:2/4] [A,F]4 | %10
[M:1/4] [G,CE][G,DF] |[M:3/4] [CEG]2 [CEG]2 [A,F][CEG] | [CFA]4 [EG][FA] | [GB]2 G2 AB | %14
[M:2/4] [Ac]4 |[M:1/4] cd |[M:3/4] c2 A2 [_EFc][DFB] | [DFB]4 [CF][DFG] | %18
 [CFA][CGB] [CFA]2 [B,EG]2 |[M:2/4] [A,F]4 |] %20
V:2
 z2 z2 [F,A,C][F,CF] | [F,CF]2 [F,A,C]2 [F,D][F,C] | [F,C]4 [C,G,C][C,C] | %3
 [C,C]2 [C,G,C]2 [C,B,C][F,A,C] |[M:2/4] [F,A,C]4 |[M:1/4] [F,A,C][F,CF] | %6
[M:3/4] [F,CF]2 [F,A,F]2 [F,A,F][F,CF] | B,,4 A,,B,, | C,C, C,2 C,2 |[M:2/4] F,4 |[M:1/4] C,C, | %11
[M:3/4] C,2 C,2 D,C, | F,4 [C,C][C,C] | [C,C]2[K:treble] [B,CE]2 [A,CF][G,CG] | %14
[M:2/4][K:bass] [F,C]4 |[M:1/4] [F,A,F][F,B,F] |[M:3/4] [F,A,F]2 [F,CF]2 B,,B,, | B,,4 A,,B,, | %18
 C,C, C,2 C,2 |[M:2/4] F,4 |] %20

